X:1
T:Title
L:1/8
Q:1/4=90
M:3/4
K:F
V:1 treble nm="Church Organ, Staff"
V:1
 CC F F3 | GA- A/G/ F2 G- | GA- A/A/ G2 A- | A B2 .A3 | CC F F3 | GA- A/G/ F2 G- | GA- A/A/ G2 A- | %7
w: By~French~Flanders~Melody * * *|||||||
 A B2 .A3 | GA- A/=B/ c3 | cc =B .c3 | GG- G/F/ G3 | A B2 .G3 | CC F F2 E | FG A D3 | DG B D3 | %15
w: ||||||||
 BA G .F3 |] %16
w: |

